X:50D
T:Bury Waltz in D - with harmony by Anahata
O:No 50  Pages 20-21 Wm Clarke MS  Feltwell, Norfolk
N:Extended version of Waltz 028. (Includes a B part.
N:In MS the 3rd part has 5 bars repeated then 3 bars repeated.
N:Flow instructions are editorial to give a 48 bar tune.
N:Transposed from C into D (Anahata 2008)
Z:Anahata <anahata@treewind.co.uk> transposed
I:abc2nwc
M:3/4
L:1/8
K:Dmaj
V: 1 clef:treble
V: 2 clef: treble
%%stretchlast
V:1
f2|a2g2e2|f4d2|e3/2f/2 g2b2|a4f2|
V:2
d2| A2 B2 c2 | d4 A2 | B2 e2 e2 |c4 d2 |
V:1
a2g2e2|f4d2|e3/2f/2 g2e2|d4:|
V:2
A2 B2 c2|d4 A2|c>d e2 AG|F4 :|
V:1
|:e3/2d/2|c2A2c2|d4f2|e3/2f/2 g2b2|a4e3/2d/2|
V:2
|:c>B | A4G2|F4 A2 |G2B2e2 |c4 c>B |
V:1
c2A2c2|d4f2|e3/2f/2(ge)(ce)|d4:|
V:2
A4 G2   |F4d2 |c>d ec AG |F4 :|
V:1
|:F3/2A/2|d2d2F3/2A/2|d2d2f2|e2e2a2|f2d2F3/2A/2|
V:2
|: D>F | A2 A2 D>F | A2A2 d2 | c4 A2 | d4 D>F |
V:1
d2d2F3/2A/2|d2d2f2|eg ce Ac|d4 :|
V:2
A2 A2 D>F | A2 A2 d2 | c2 A2 G2 | F4 :|


